X: 47
T:William Irwin's Quickstep. WI.047
M:C|
L:1/8
Q:160
C:by W.Irwin
S:Wm Irwin, Folio MS, c1850. AGG's Transcription
R:March
O:England
A:Lake District
Z:vmp.Chris Partington.2005
K:D
F>G|A^GAB A=GFG|A2d2 f4|gfgA c4|eddf A4|!
A^GAB A=GFG|A2d2 f4|gfgA e^deA|cBcA d2:|!
|:f2|g2gf eAce|f2fe dcBA|B2gf edcd|edcB|A2ef|!
g2gf eAce|f2fe dcBA|B2gf edce|d2D2D2:|]
